X:1
T:Orlando, 98.98 D
T:Orlando, 98.98 D
T:William James Kirkpatrick, 1890
T:Public Domain Courtesy of the Cyber Hymnal™
C:William James Kirkpatrick, 1890
Z:Public Domain
Z:Courtesy of the Cyber Hymnal™
%%score ( 1 2 ) ( 3 4 )
L:1/8
Q:1/4=105
M:4/4
K:G
V:1 treble 
V:2 treble 
V:3 bass 
V:4 bass 
V:1
 D2 | G2 D>G B2 G>[GB] | [Fd]4 [GB]2 (GB) | [DA]2 [DA]>[DB] [^CA]2 [CE]>[CB] | [DA]6 D2 | %5
 G2 D>G B2 G>[GB] | [Fd]4 [GB]2 ([DG][GB]) | [FA]2 [FA]>[FA] [G^c]2 [GB]>[Gc] | [Fd]6 [Gd]2 | %9
 ([Ge][=Fd])[Ec][EB] AG[D^F][CE] | [B,D]2 [Ec]2 [DB]3 [DA] | (GA)[GB][Gc] (de)[Gd][GB] | %12
 [FA]6 (dc) | [GB]2 [GB]>[Gc] (dB)[DG][DF] | [CE]2 [EG]2 [Ec]3 [Ge] | (ed)[Gc][GB] (Ad)[DF][DA] | %16
 [DG]6 |] %17
V:2
 D2 | G2 D>G B2 G3/2 x/ | x6 D2 | x8 | x6 D2 | G2 D>G B2 G3/2 x/ | x8 | x8 | x8 | x4 E2 x2 | x8 | %11
 D2 x G2 x3 | x6 F2 | x4 G2 x2 | x8 | G2 x F2 x3 | x6 |] %17
V:3
 D,2 | G,2 D,>G, B,2 G,>G, | A,2 D2 [G,D]2 (B,D) | [F,D]2 [F,A,]>F, [E,G,]2 [A,,G,]>[A,,G,] | %4
 [D,F,]6 D,2 | G,2 D,>G, B,2 G,>G, | (A,2 D2) [B,D]2 (B,D) | [A,D]2 [A,D]>[A,D] [A,E]2 A,>A, | %8
 [D,A,]6 [G,B,]2 | (CG,)[C,G,][C,G,] [C,C]2 [C,G,][C,G,] | [G,,G,]4 [G,,G,]3 [D,C] | %11
 (B,C)[G,D][G,D] (B,C)[G,B,][G,D] | D6 [D,D]2 | [G,,G,D]2 [G,D]>[G,C] (B,D)[B,,G,][B,,G,] | %14
 G,2 C2 [C,G,]3 [C,C] | [D,B,]2 [D,A,][D,D] (DA,)[D,C][D,C] | [G,,G,B,]6 |] %17
V:4
 D,2 | G,2 D,>G, B,2 G,>G, | D,4 G,2 x2 | x7/2 F,/ x4 | x6 D,2 | G,2 D,>G, B,2 G,>G, | D,4 G,2 x2 | %7
 x6 A,>A, | x8 | C,2 x6 | x8 | G,2 x G,2 x3 | (D,2 D,3/2 D,/D,C,) (B,,A,,) | x4 G,2 x2 | C,4 x4 | %15
 x4 D,2 x2 | x6 |] %17

